localPackages/DesignSystem/Sources/DesignSystem/Resources/Assets.xcassets/IconSet/ic-arrow-down-line.imageset/ic-arrow-down-line.svg

<svg width="24" height="24" viewBox="0 0 24 24" fill="none" xmlns="http://www.w3.org/2000/svg">
<g id="ic-arrow-down-line">
<path id="Icon" fill-rule="evenodd" clip-rule="evenodd" d="M11.2474 15.4368L6.53033 10.7197C6.23744 10.4268 5.76256 10.4268 5.46967 10.7197C5.17678 11.0126 5.17678 11.4875 5.46967 11.7804L11.4697 17.7804C11.7626 18.0733 12.2374 18.0733 12.5303 17.7804L18.5303 11.7804C18.8232 11.4875 18.8232 11.0126 18.5303 10.7197C18.2374 10.4268 17.7626 10.4268 17.4697 10.7197L12.7474 15.4419L12.7474 2.25232C12.7474 1.83811 12.4116 1.50232 11.9974 1.50232C11.5832 1.50232 11.2474 1.83811 11.2474 2.25232L11.2474 15.4368ZM3 20.25C3 19.8358 3.33579 19.5 3.75 19.5H20.25C20.6642 19.5 21 19.8358 21 20.25C21 20.6643 20.6642 21 20.25 21H3.75C3.33579 21 3 20.6643 3 20.25Z" fill="#0F0F0F"/>
</g>
</svg>

<svg xmlns="http://www.w3.org/2000/svg" width="24" height="24" viewBox="0 0 24 24">
  <g class="ic-arrow-down-line">
    <path fill-rule="evenodd" d="M11.247 15.437 6.53 10.719a.75.75 0 0 0-1.06 1.061l6 6a.75.75 0 0 0 1.06 0l6-6a.75.75 0 0 0-1.06-1.06l-4.723 4.722V2.252a.75.75 0 0 0-1.5 0v13.185ZM3 20.25a.75.75 0 0 1 .75-.75h16.5a.75.75 0 0 1 0 1.5H3.75a.75.75 0 0 1-.75-.75Z" class="Icon"/>
  </g>
</svg>
